X:115
T: Frank Roche's Favourite
S: Matt Molloy
Z: B.Black
M: 4/4
L: 1/8
R: hornpipe %with considerable strathspey feeling
K: G
G2 GB AG E2|cBce dBd<g|B2 Bd (3cBA (3BAG|\
(3EFG (3FGA (3GBG (3AFD |
G2 GB AG E2|cBce dBd<g|B2 Bd (3cBA (3BAG|\
(3EFG (3FGA G4 ||
dgBg dgBg|(3gab (3agf e2 e2|
(3gab (3agf (3gfe (3dcB|(3cde (3def (3gdc (3BAG|
dgBg dgBg|(3gab (3agf e2 e2|
(3gab (3agf (3gfe (3dcB|(3cde (3def (3gdc (3BcA ||
